X:118
T:Meals On 
R:jig
C:Bruce Osborne - Dec. 2002
Z:abc by bosborne@kos.net
M:6/8
L:1/8
K:Emaj
g/a/|bge BeB|GBG EGE|FEF FGA|cB^A B2 g/a/|\
bge BeB|GBG EGE|FEF FGA|GFD E2:|
|:G/F/|EGE B,EG|BcB GFE|FEF FGA|cB^A B2 G/F/|\
EGE B,EG|BcB GFE|FEF FGA|GFD E2:|
